X:1
T:His Love Is Far Better Than Gold
T:His Love Is Far Better Than Gold
T:Alfred Henry Ackley
T:Alfred Henry Ackley, 1910
T:Public Domain Courtesy of the Cyber Hymnal™
T:Public Domain Courtesy of the Cyber Hymnal™
C:Alfred Henry Ackley
Z:Public Domain
Z:Courtesy of the Cyber Hymnal™
%%score ( 1 2 ) ( 3 4 )
L:1/8
Q:1/4=105
M:9/8
K:Bb
V:1 treble 
V:2 treble 
V:3 bass 
V:4 bass 
V:1
 [DF]3 | [DF]4 [^C=E][DF] [Fd][F=c][FB] | [EG]3 [GB]3 [FA]2 [EG] | [DF]4 [EG][DF] [CE][CF][CE] | %4
w: 1.~The|love of the Christ is so|pre- cious, That no|mor- tal its wealth can un-|
w: 2.~He|meets ev- ery need with the|prom- ise, No good|thing from His own to with-|
w: 3.~My|heart ev- er yearns with a|long- ing, To be-|hold the great joy of my|
 [B,D]6 [DF]3 | [EG]4 [E^F][EG] [Ec][EB][EG] | [EG][DF][^C=E] [DF]3 [Fd]3 | %7
w: fold; His|grace is a store- house of|rich- es to me, His|
w: hold; So|dai- ly I trust in the|Cru- ci- fied One His|
w: soul, For-|ev- er to dwell in the|pre- sence of Him, Whose|
 [=Ec]4 [EG][EA] [Ec][EB][EG] | F6 ||"^Refrain" [EF]3 | d3- dfd | cB[DG] | A6 F3 | e3- edc AGF | %14
w: love is far bet- ter than|gold.||||||
w: love is far bet- ter than|gold.|His|love * is far|bet- ter than|gold, Its|full- * ness can ne- ver be|
w: love is far bet- ter than|gold.||||||
 d6 [DF]3 | G2- G ^FGc B[EG] x | [DF][FB][Fc] [Fd]3 [Ge]2 [Fd] | %17
w: |||
w: told; It|makes * me an heir to the|man- sions a- bove, For His|
w: |||
 c3- cGB !fermata!A!fermata!d[_Ec] | [DB]6 |] %19
w: ||
w: love * is far bet- ter than|gold.|
w: ||
V:2
 x3 | x9 | x9 | x9 | x9 | x9 | x9 | x9 | F6 || x3 | (FFF F3) | D2 x | (EEE E3) F3 | (FFF F3) E2 F | %14
 (FFF F3) x3 | (EEE E3) E2 x | x9 | (=EEE E3) F2 x | x6 |] %19
V:3
 [B,,B,]3 | [B,,B,]4 [B,,B,][B,,B,] [B,,B,][C,A,][D,B,] | [E,B,]3 [E,B,]3 [E,B,]2 [E,B,] | %3
w: ~|~ ~ ~ ~ ~ ~|~ ~ ~ ~|
 [F,B,]4 [F,B,][F,B,] [F,A,][F,A,]F, | [B,,F,]6 [B,,B,]3 | %5
w: ~ ~ ~ ~ ~ ~|~ ~|
 [E,B,]4 [E,A,][E,B,] [E,G,][E,G,][E,B,] | [B,,B,][B,,B,][B,,B,] [B,,B,]3 [B,,B,]3 | %7
w: ~ ~ ~ ~ ~ ~|~ ~ ~ ~ ~|
 [C,B,]4 [C,B,][C,A,] [C,G,][C,G,][C,B,] | [F,A,]6 || [F,A,]3 | [B,,B,][D,B,][F,B,] B,3 | %11
w: ~ ~ ~ ~ ~ ~|~|His|love is far bet-|
 [B,,B,]2 [B,,B,] | [C,F,][C,F,][C,F,] [F,C]3 [F,A,]3 | [F,A,][F,A,][F,A,] [F,A,]3 [F,C]2 [F,A,] | %14
w: ter, far|bet- ter than gold, Its|full- ness can ne- ver, can|
 [E,B,][E,B,][E,B,] [E,B,]3 [B,,B,]3 | [E,B,][E,B,][E,B,] [E,B,]3 [E,G,]2 [E,B,] | %16
w: ne- ver be told, It|makes me an heir to the|
 [B,,B,][D,B,][F,A,] B,3 [B,,B,]2 [B,,B,] | [C,G,][C,G,][C,G,] [C,C]3 !fermata![F,A,]2 [F,A,] | %18
w: man- sions a- bove, For His|love is far bet- ter than|
 [B,,F,]6 |] %19
w: gold.|
V:4
 x3 | x9 | x9 | x8 F, | x9 | x9 | x9 | x9 | x6 || x3 | x3 B,3 | x3 | x9 | x9 | x9 | x9 | %16
 x3 B,3 x3 | x9 | x6 |] %19

